icons/svg/dice-d4.svg

﻿<?xml version="1.0" encoding="utf-8"?>
<!DOCTYPE svg PUBLIC "-//W3C//DTD SVG 1.1//EN" "http://www.w3.org/Graphics/SVG/1.1/DTD/svg11.dtd">
<svg xmlns="http://www.w3.org/2000/svg" xmlns:xlink="http://www.w3.org/1999/xlink" version="1.1" baseProfile="full" width="24" height="24" viewBox="0 0 24.00 24.00" enable-background="new 0 0 24.00 24.00" xml:space="preserve">
	<path fill="#060605" fill-opacity="1" stroke-width="0.2" stroke-linejoin="miter" d="M 13.4283,15.145L 14.2883,15.145L 14.2883,16.36L 13.4283,16.36L 13.4283,18L 11.9233,18L 11.9233,16.36L 8.815,16.36L 8.74667,15.4117L 11.9083,10.4167L 13.4283,10.4167L 13.4283,15.145 Z M 10.2467,15.145L 11.9233,15.145L 11.9233,12.4683L 10.2467,15.145 Z M 22,21L 2.00053,21C 1.6392,21 1.30652,20.806 1.12944,20.4909C 0.952393,20.1759 0.958252,19.7904 1.14506,19.4819L 11.1451,2.98185C 11.5084,2.38281 12.4934,2.38281 12.8554,2.98185L 22.8554,19.4819C 23.0429,19.7904 23.0481,20.1759 22.871,20.4909C 22.694,20.806 22.3606,21 22,21 Z M 3.776,19L 20.2252,19L 12.0005,5.42973L 3.776,19 Z "/>
</svg>

<svg xmlns="http://www.w3.org/2000/svg" version="1.1" baseProfile="full" width="24" height="24" viewBox="0 0 24.00 24.00" xml:space="preserve"><path fill="#060605" fill-opacity="1" stroke-width=".2" stroke-linejoin="miter" d="M13.428 15.145h.86v1.215h-.86V18h-1.505v-1.64H8.815l-.068-.948 3.16-4.995h1.52v4.728zm-3.18 0h1.675v-2.677l-1.676 2.677zM22 21H2c-.36 0-.693-.194-.87-.51-.178-.314-.172-.7.015-1.008l10-16.5c.363-.6 1.348-.6 1.71 0l10 16.5c.188.308.193.694.016 1.01-.176.314-.51.508-.87.508zM3.776 19h16.45L12 5.43 3.777 19z"/></svg>
